X: 1
T: the Quarterdeck
O: Trad
R: hornpipe, reel
Z: 2010 John Chambers <jc:trillian.mit.edu>
M: C|
L: 1/8
K: D
A2 \
| "D"Adcd "G"Bdcd | "D"Adcd "G"Bdcd \
|1 "D"Adfa gfed | "A7"c2e2 e2 \
:|2 "D"Adfa "A7"gece | "D"d2f2 d2 :|
|: fg \
| "D"afdf afba | "Em"gfef "A7"geag \
|1 "D"fdAd fdgf | "A7"edcB A2 \
:|2 "D"fafd "A7"egec | "D"d2f2 d2 :|
